!!!COM: Bach, Johann Sebastian
!!!CDT: 1685/02/21/-1750/07/28/
!!!OTL@@DE:	Gelobet seist du, Jesu Christ
!!!SCT: BWV 91/6
!!!PC#:	51
!!!AGN: chorale
**harm	**kern	**kern	**kern	**kern
*	*ICvox	*ICvox	*ICvox	*ICvox
*	*Ibass	*Itenor	*Ialto	*Isoprn
*	*I"Bass	*I"Tenor	*I"Alto	*I"Soprano
*	*	*oclefC4	*oclefC3	*oclefC1
*	*clefF4	*clefGv2	*clefG2	*clefG2
*k[f#]	*k[f#]	*k[f#]	*k[f#]	*k[f#]
*G:	*G:	*G:	*G:	*G:
*M4/4	*M4/4	*M4/4	*M4/4	*M4/4
*met(c)	*met(c)	*met(c)	*met(c)	*met(c)
*MM100	*MM100	*MM100	*MM100	*MM100
I	4G	4B	4d	4g
=1	=1	=1	=1	=1
IV6	4E	4c	4e	4g
I	4G	4B	4d	4g
V	4D	4A	4f#	4a
vi	4E	4B	4e	4g
=2	=2	=2	=2	=2
IV	4C	4e	4g	4cc
C:V7	4GG	4B	4f	4dd
I;	2C;	2G;	2e;	2cc;
=3	=3	=3	=3	=3
iii	4E	4e	4g	4b
viio6	4D	4f	4b	4dd
I	4C	4g	4cc	4ee
G:V65	4FF#	4d	4a	4cc
=4	=4	=4	=4	=4
I	4GG	4d	4g	4b
V7	4D	4c	4f#	4a
I;	4GG;	4B;	4d;	4g;
I6	4BB	4G	4d	4g
=5	=5	=5	=5	=5
viio6	4AA	4A	4f#	4cc
I	4GG	4d	4g	4b
I6	4BB	4B	4g	4dd
V	8DL	8dL	8f#L	8aL
V2	8CJ	8dJ	8f#J	8aJ
=6	=6	=6	=6	=6
I6	4BB	4d	4d	4g
D:V7	4AA	4G	4c#	4e
I;	4DD;	4F#;	4A;	4d;
I	4D	4F#	4A	4d
=7	=7	=7	=7	=7
I6	4F#	4A	4d	4a
V	4A	4c#	4c#	4a
I	8DL	8dL	8f#L	8aL
G:V2	8CJ	8dJ	8f#J	8aJ
I6	4BB	4d	4g	4b
=8	=8	=8	=8	=8
ii	4AA	4e	4a	4ccnX
ii65	8CL	8eL	8gL	8aL
V	8DJ	8dJ	8f#J	8aJ
IV6	8EL	8cL	8eL	8gL
viio	8F#J	8c	8aJ	8aJ
I	4G	4B	4d	4b
=9	=9	=9	=9	=9
V;	2D;	2d;	2f#;	2a;
I6	4BB	4d	4d	4g
V7/IV	4GG	4B	4f	4g
=10	=10	=10	=10	=10
IV	4C	4G	4e	4g
IV	4C	4c	4e	4g
I;	4GG;	4B;	4d;	4g;
==	==	==	==	==
*-	*-	*-	*-	*-
!!!YOR1: 371 vierstimmige Choralges&auml;nge von Johann Sebastian Bach, 
!!!YOR2: 4th ed. by Alfred D&ouml;rffel (Leipzig: Breitkopf und H&auml;rtel, 
!!!YOR2: c.1875). 178 pp. Plate "V.A.10".  reprint: J.S. Bach, 371 Four-Part 
!!!YOR4: Chorales (New York: Associated Music Publishers, Inc., c.1940).
!!!SMS: B&H, 4th ed, Alfred D&ouml;rffel, c.1875, plate V.A.10
!!!EED:  Craig Stuart Sapp
!!!EEV:  2009/05/22
